X:1
T:Title
%%score ( 1 2 ) { 3 | 4 }
L:1/8
Q:1/4=100
M:6/8
K:E
V:1 treble nm="Grand Piano, Soprano"
V:2 treble 
V:3 bass nm="Choir Pad, Never Turn Aside"
V:4 bass 
V:1
 E [EG]2 [EF] E2 | [EG] [EB]2 [EB] [EG]2 | E[EG][EG]- [EG] [FA]2 | [EG] [DF]2- [DF]2- [DF]/ z/ | %4
w: By~John~Marion~Dye,~1904 * * *||||
 E [EG]2 [EF] E2 | [EG] [GB]2 [GB] [EG]2 | E[EG][EG]- [EG] [DF]2 | [DF] E2- E2- E/ z/ | %8
w: ||||
 [GB][Ge][Ge]- [Ge] [Ge]2 | [Ac] B2- [GB-][G-B]>G | [EG][EA][EA]- [EA] [Ac]2 | %11
w: |||
 [Ac] B2- [GB-][G-B]>G | [GB] [Ge]2 [Ad] [Be]2 | [Ac][GB][Ac] [GB] [EG]2 | E[EG][EG]- [EG] [DF]2 | %15
w: ||||
 [DF] E2- E3- | E3 z3 |] %17
w: ||
V:2
 x6 | x6 | x6 | x6 | x6 | x6 | x6 | x6 | x6 | z G2 z3 | x6 | z G2 z3 | x6 | x6 | x6 | x6 | x6 |] %17
V:3
 G, B,2 A, G,2 | B, G,2 G, G,2 | G,B,B,- B, B,2 | B, B,2- B,2- B,/ z/ | G, B,2 A, G,2 | %5
 B, E2 E B,2 | G,B,B,- B, A,2 | A, G,2- G,2- G,/ z/ | B,B,B,- B, B,2 | E E2 E E2 | B,CC- C E2 | %11
 E E2 E E2 | E[K:bass] B,2 B, B,2 | E E2 E B,2 | G,B,B,- B, A,2 | A, G,2- G,3- | G,3 z3 |] %17
V:4
 E, E,2 E, E,2 | E, E,2 E, E,2 | E,E,E,- E, D,2 | E, B,,2- B,,2- B,,/ z/ | E, E,2 E, E,2 | %5
 E, E,2 E, E,2 | E,B,,B,,- B,, B,,2 | B,, E,2- E,2- E,/ z/ | E,E,E,- E, E,2 | E, E,2 E, E,2 | %10
 E,A,,A,,- A,, A,,2 | A,, E,2 E, E,2 | E, E,2 F, G,2 | A, E,2 E, E,2 | E,B,,B,,- B,, B,,2 | %15
 B,, E,2- E,3- | E,3 z3 |] %17

